X: 32577
T: Planxty Irwin
R: waltz
M: 3/4
K: Gmajor
d2|:g4 f2|e3f g2|d4 c2|B3A G2|c4 A2|B3c d2|F4 G2|A4 d2|
g4 f2|e3f g2|d4 c2|B3A G2|c4 A2|B3c d2|G4 F2|G4 d2:|
|:g4 g2|g3f g2|a2b a2|a2 f2 d2|b4 b2|a3b g2|f3g e2|d3e f2|
g4 f2|e3f g2|d4 c2|B3A G2|c4 A2|B3c d2|G4 F2|1 G4 d2:|2 G6||

